!!!OTL: FEINDE RINGSUM FEINDE RINGSUM
!!!ARE: Europa, Mitteleuropa, Deutschland
!!!SCT: B0068
!!!YEM: Copyright 1995, estate of Helmut Schaffrath.
**kern
*ICvox
*Ivox
*M4/4
*k[b-e-a-]
*E-:
=1
{2e-
4g
4e-
=2
2b-
2r}
=3
{2b-
4cc
4dd
=4
2ee-
2r}
=5
{4cc
8cc
8cc
8cc
8a-
8ee-
8cc
=6
8cc
8b-
4b-
2r}
=7
{4cc
8cc
8cc
8cc
8a-
8ee-
8cc
=8
8cc
8b-
4b-
2r}
=9
{2cc
8cc
8b-
8a-
8g
=10
2f
2r}
=11
{2g
8b-
8g
8a-
8f
=12
2e-
2r}
==
!!!AGN: Kriegs -, Sieges -, Soldaten - Lied
!!!ONB: ESAC (Essen Associative Code) Database: BOEHME
!!!AMT: simple quadruple
!!!AIN: vox
!!!EED: Helmut Schaffrath
!!!EEV: 1.0
*-
